X:1
T:We Shall Not Be Moved
M:4/4
L:1/8
K:C
 EE EE F2 E2| ED DD D4| DD DD E2 D2| DC CC CE DC| A,3 CD CB, A,| G,4 C4|\
 E2 F2 E2 D2| C8|
